X: 1
T: Lap-Nils Polska efter P\aal Nilsson
S: MS of unknown origin
N: "En favorit av Lapp Nils som P\aal-Nils l\"arde sig 1851 hos honom"
N: Harmony from an arrangement by Mats Andersson
Z: 2009 John Chambers <jc:trillian.mit.edu>
M: 3/4
L: 1/8
K: F
V: 1
|: "F"A>c "C"((3BAG) (G<F-) | "F"FA cc A2 | "Gm"B(A B)(c d)e | "C"(3g(ag) "F"fc (3A(cA) |
|  "F"z(F "C"E)G G<F- | "F"F>(A c)(c A2) | "Gm"B(A B)(c d)f | "C"(e<c) "F"f4 :|
|: "F"f(e f)(g a)b | "C"(3b(ag) (3f(af) ef | "F"(3c(eg) fd cB | "C"(AB) c4 |
|  "F"f(e f)(g a)b | "C"(3g(ag) (3f(ed) "F"cA | "Bb"B(c d)(B "F"(3A)(cA) | "C"G2 "F"[F4A,4] :|
V: 2
|: F>A, CC (B,2 | A,)C/F/ AA F2 | D2 (GA) Bd | cc (3A(cA) F2- |
|  FA, CC (B,2 | A,)C/F/ AA F2 | D2 (GA) Bd | (3c(BG) [A4F4] :|
|: A2 Ac f2 | (3e(fe) (3d(cB) GB | (3A(BA) AG F2 | FG E4 |
|  A2 Ac f2 | (3e(fe) (3d(cB) AF | D2 FB AF | (CB,) A,4 :|
